public/svg/i-account-mobile.svg

<svg width="22" height="22" viewBox="0 0 22 22" fill="none" xmlns="http://www.w3.org/2000/svg">
<path d="M11 0C4.9 0 0 4.9 0 11C0 17.1 4.9 22 11 22C17.1 22 22 17.1 22 11C22 4.9 17.1 0 11 0ZM16.6 18.2C16.2 15.4 13.8 13.3 11 13.3C8.1 13.3 5.8 15.4 5.4 18.2C3.2 16.5 1.8 13.9 1.8 11C1.8 5.9 5.9 1.8 11 1.8C16.1 1.8 20.2 5.9 20.2 11C20.2 13.9 18.8 16.6 16.6 18.2Z" fill="#545769"/>
<path d="M10.9996 12.5998C12.8774 12.5998 14.3996 11.0776 14.3996 9.1998C14.3996 7.32204 12.8774 5.7998 10.9996 5.7998C9.12184 5.7998 7.59961 7.32204 7.59961 9.1998C7.59961 11.0776 9.12184 12.5998 10.9996 12.5998Z" fill="#545769"/>
</svg>

<svg width="22" height="23" fill="none" xmlns="http://www.w3.org/2000/svg"><g filter="url(#filter0_d)" fill="#fff"><path d="M11 0C4.9 0 0 4.9 0 11s4.9 11 11 11 11-4.9 11-11S17.1 0 11 0zm5.6 18.2c-.4-2.8-2.8-4.9-5.6-4.9-2.9 0-5.2 2.1-5.6 4.9-2.2-1.7-3.6-4.3-3.6-7.2 0-5.1 4.1-9.2 9.2-9.2s9.2 4.1 9.2 9.2c0 2.9-1.4 5.6-3.6 7.2z"/><path d="M11 12.6a3.4 3.4 0 100-6.8 3.4 3.4 0 000 6.8z"/></g><defs><filter id="filter0_d" x="0" y="0" width="22" height="23" filterUnits="userSpaceOnUse" color-interpolation-filters="sRGB"><feFlood flood-opacity="0" result="BackgroundImageFix"/><feColorMatrix in="SourceAlpha" values="0 0 0 0 0 0 0 0 0 0 0 0 0 0 0 0 0 0 127 0"/><feOffset dy="1"/><feColorMatrix values="0 0 0 0 0 0 0 0 0 0 0 0 0 0 0 0 0 0 0.16 0"/><feBlend in2="BackgroundImageFix" result="effect1_dropShadow"/><feBlend in="SourceGraphic" in2="effect1_dropShadow" result="shape"/></filter></defs></svg>
